( Made using CamBam - http://www.cambam.info )
( Sauce Line 11/3/2018 3:29:01 PM )
( T0 : 0.0 )
M203 E200
M203 X1000
M203 Y1000
( G28 X Y )
( G21 G90 G64 G40 ) 
( T0 : 0.0 )
( T0 M6 )
( Engrave1 )
( G17 )
M83
G0 F4000
G0 X30.0 Y95.0
G0 F1000
G1 X45.2857 E-10
G3 X50.2857 Y103.0 I0.0 J5.0 E-5
G1 Y105.5 E-10
G2 X55.2857 Y110.5 I5.0 J0.0 E-5
G1 X63.8571 E-10
G2 X68.8571 Y105.5 I0.0 J-5.0 E-5
G1 Y90.5 E-10
G3 X73.8571 Y85.5 I5.0 J0.0 E-5
G1 X82.4286 E-10
G3 X87.4286 Y90.5 I0.0 J5.0 E-5
G1 Y105.5 E-10
G2 X92.4286 Y110.5 I5.0 J0.0 E-5
G1 X101.0 E-10
G2 X106.0 Y105.5 I0.0 J-5.0 E-5
G1 Y90.5 E-10
G3 X111.0 Y85.5 I5.0 J0.0 E-5
G1 X119.5714 E-10
G3 X124.5714 Y90.5 I0.0 J5.0 E-5
G1 Y105.5 E-10
G2 X129.5714 Y110.5 I5.0 J0.0 E-5
G1 X138.1429 E-10
G2 X143.1429 Y105.5 I0.0 J-5.0 E-5
G1 Y90.5 E-10
G3 X148.1429 Y85.5 I5.0 J0.0 E-5
G1 X156.7143 E-10
G3 X161.7143 Y90.5 I0.0 J5.0 E-5
G1 Y93.0 E-10
G2 X166.7143 Y98.0 I5.0 J0.0 E-5
G1 X161.0 E-10
( M30 )
