( Made using CamBam - http://www.cambam.info )
( Sauce Line 11/3/2018 3:29:01 PM )
( T0 : 0.0 )
M203 E200
M203 X1000
M203 Y1000
( G28 X Y )
( G21 G90 G64 G40 ) 
( T0 : 0.0 )
( T0 M6 )
( Engrave1 )
( G17 )
M83
G0 F4000
G0 X30.0 Y105.0
G0 F1000
G1 X38.9289 E10
G3 X42.4645 Y106.4645 I0.0 J5.0 E5
G1 X45.4645 Y109.4645 E10
G2 X52.5355 I3.5355 J-3.5355 E5
G1 X61.4645 Y100.5355 E10
G3 X68.5355 I3.5355 J3.5355 E5
G1 X77.4645 Y109.4645 E10
G2 X84.5355 I3.5355 J-3.5355 E5
G1 X93.4645 Y100.5355 E10
G3 X100.5355 I3.5355 J3.5355 E5
G1 X109.4645 Y109.4645 E10
G2 X116.5355 I3.5355 J-3.5355 E5
G1 X125.4645 Y100.5355 E10
G3 X132.5355 I3.5355 J3.5355 E5
G1 X141.4645 Y109.4645 E10
G2 X148.5355 I3.5355 J-3.5355 E5
G1 X157.4645 Y100.5355 E10
G3 X164.5355 I3.5355 J3.5355 E5
G1 X167.5355 Y103.5355 E10
G2 X171.0711 Y105.0 I3.5355 J-3.5355 E5
G1 X180.0 E10
( M30 )
