( Made using CamBam - http://www.cambam.info )
( Sauce Pattern v2 - 3 Cycles 12/12/2018 8:12:13 PM )
( T0 : 0.0 )
( G21 G90 G64 G40 )
( G0 Z0.0 )
( T0 : 0.0 )
( T0 M6 )
( Engrave1 )
M203 E100
M203 X5000
M203 Y5000
M83

( G17 )
G0 F8000
G0 X20.0 Y100.1041
G0 F6000
G1 X29.9464 E-4.975
G3 X34.3284 Y102.6962 I0.0 J5.0 E-2.67
G1 X39.722 Y112.5119 E-5.6
G2 X48.4861 I4.382 J-2.4079 E-5.34
G1 X62.122 Y87.6962 E-14.16
G3 X70.8861 I4.382 J2.4079 E-5.34
G1 X84.522 Y112.5119 E-14.16
G2 X93.2861 I4.382 J-2.4079 E-5.34
G1 X106.922 Y87.6962 E-14.16
G3 X115.6861 I4.382 J2.4079 E-5.34
G1 X129.322 Y112.5119 E-14.16
G2 X138.0861 I4.382 J-2.4079 E-5.34
G1 X151.722 Y87.6962 E-14.16
G3 X160.4861 I4.382 J2.4079 E-5.34
G1 X165.8797 Y97.5119 E-5.6
G2 X170.2618 Y100.1041 I4.382 J-2.4079 E-2.67
G1 X180.0 E-4.975
G0 X200