( Made using CamBam - http://www.cambam.info )
( Sauce-Bot Path 11/13/2018 9:00:03 PM )
( T0 : 0.0 )
G21 G90 G64 G40
G0 Z0.0
( T0 : 0.0 )
T0 M6
( Engrave2 )
G17
G0 X30.0 Y105.0
G1 X38.9289
G2 X42.4645 Y103.5355 I0.0 J-5.0
G1 X45.4645 Y100.5355
G3 X52.5355 I3.5355 J3.5355
G1 X61.4645 Y109.4645
G2 X68.5355 I3.5355 J-3.5355
G1 X77.4645 Y100.5355
G3 X84.5355 I3.5355 J3.5355
G1 X93.4645 Y109.4645
G2 X100.5355 I3.5355 J-3.5355
G1 X109.4645 Y100.5355
G3 X116.5355 I3.5355 J3.5355
G1 X125.4645 Y109.4645
G2 X132.5355 I3.5355 J-3.5355
G1 X141.4645 Y100.5355
G3 X148.5355 I3.5355 J3.5355
G1 X157.4645 Y109.4645
G2 X164.5355 I3.5355 J-3.5355
G1 X167.5355 Y106.4645
G3 X171.0711 Y105.0 I3.5355 J3.5355
G1 X180.0
M30
