( Made using CamBam - http://www.cambam.info )
( Sauce Pattern v2 - 4 Cycles 12/12/2018 8:15:04 PM )
( T0 : 0.0 )
G21 G90 G64 G40
G0 Z0.0
( T0 : 0.0 )
T0 M6
( Engrave1 )
G17
G0 X20.0 Y100.1041
G1 X32.3143
G3 X37.1282 Y103.7529 I0.0 J5.0
G1 X39.2901 Y111.4553
G2 X48.918 I4.814 J-1.3512
G1 X55.2901 Y88.7529
G3 X64.918 I4.814 J1.3512
G1 X71.2901 Y111.4553
G2 X80.918 I4.814 J-1.3512
G1 X87.2901 Y88.7529
G3 X96.918 I4.814 J1.3512
G1 X103.2901 Y111.4553
G2 X112.918 I4.814 J-1.3512
G1 X119.2901 Y88.7529
G3 X128.918 I4.814 J1.3512
G1 X135.2901 Y111.4553
G2 X144.918 I4.814 J-1.3512
G1 X151.2901 Y88.7529
G3 X160.918 I4.814 J1.3512
G1 X163.0799 Y96.4553
G2 X167.8939 Y100.1041 I4.814 J-1.3512
G1 X180.0
M30
