( Made using CamBam - http://www.cambam.info )
( Sauce-Bot Path 11/20/2018 10:12:32 PM )
( T0 : 0.0 )
G21 G90 G64 G40
G0 Z0.0
( T0 : 0.0 )
T0 M6
( Engrave1 )
G17
G0 X31.0 Y98.0
G1 X45.2857
G3 X50.2857 Y103.0 I0.0 J5.0
G1 Y105.5
G2 X55.2857 Y110.5 I5.0 J0.0
G1 X63.8571
G2 X68.8571 Y105.5 I0.0 J-5.0
G1 Y90.5
G3 X73.8571 Y85.5 I5.0 J0.0
G1 X82.4286
G3 X87.4286 Y90.5 I0.0 J5.0
G1 Y105.5
G2 X92.4286 Y110.5 I5.0 J0.0
G1 X101.0
G2 X106.0 Y105.5 I0.0 J-5.0
G1 Y90.5
G3 X111.0 Y85.5 I5.0 J0.0
G1 X119.5714
G3 X124.5714 Y90.5 I0.0 J5.0
G1 Y105.5
G2 X129.5714 Y110.5 I5.0 J0.0
G1 X138.1429
G2 X143.1429 Y105.5 I0.0 J-5.0
G1 Y90.5
G3 X148.1429 Y85.5 I5.0 J0.0
G1 X156.7143
G3 X161.7143 Y90.5 I0.0 J5.0
G1 Y93.0
G2 X166.7143 Y98.0 I5.0 J0.0
G1 X181.0
M30
