( Made using CamBam - http://www.cambam.info )
( susage 10/31/2018 10:29:13 PM )
( T0 : 0.0 )
G21 G90 G64 G40
G0 Z0.0
( T0 : 0.0 )
T0 M6
( Profile1 )
G17
G0 X59.9836 Y9.4462
G1 X57.2551 Y10.236
G1 X54.6935 Y10.9803
G1 X52.2887 Y11.6839
G1 X50.0314 Y12.3508
G1 X48.9717 Y12.6666
G1 X47.9445 Y12.9748
G1 X46.9488 Y13.2756
G1 X46.4661 Y13.4223
G1 X45.5157 Y13.7128
G1 X44.5945 Y13.9966
G2 X44.1479 Y14.1351 I8.0029 J26.5978
G2 X43.9279 Y14.2035 I3.5764 J11.8837
G1 X43.0553 Y14.4765
G1 X42.2095 Y14.7436
G2 X35.6761 Y16.9144 I68.981 J218.5222
G1 X35.0558 Y17.1334
G1 X34.4544 Y17.3485
G1 X34.1628 Y17.4539
G2 X33.0154 Y17.8754 I31.3113 J87.0042
G1 X32.8805 Y17.9257
G1 X32.3454 Y18.1272
G1 X31.8265 Y18.3254
G1 X31.5749 Y18.4225
G1 X31.0795 Y18.6159
G1 X30.5992 Y18.8063
G2 X29.6687 Y19.1838 I23.5752 J59.4439
G2 X27.9258 Y19.9272 I29.6605 J71.9541
G1 X27.5416 Y20.0986
G1 X27.169 Y20.2677
G1 X26.8079 Y20.4347
G1 X26.4579 Y20.5995
G2 X25.1088 Y21.2672 I17.9992 J38.0657
G2 X25.0715 Y21.2865 I0.1325 J0.302
G2 X25.0343 Y21.3058 I0.1323 J0.3006
G2 X24.9973 Y21.325 I0.132 J0.2991
G2 X23.831 Y21.9597 I15.3649 J29.6258
G2 X23.5745 Y22.1077 I10.3161 J18.1683
G2 X23.5433 Y22.1259 I0.1218 J0.2439
G2 X22.5654 Y22.7287 I12.4928 J21.3641
G1 X22.3515 Y22.8698
G2 X21.9407 Y23.1523 I14.032 J20.8412
G2 X21.7493 Y23.2899 I5.4885 J7.8386
G2 X21.0259 Y23.853 I7.7884 J10.7511
G2 X20.4204 Y24.3982 I7.5282 J8.9698
G2 X20.4042 Y24.4141 I0.1019 J0.1201
G2 X20.3882 Y24.4299 I0.1018 J0.1194
G2 X19.9013 Y24.9559 I4.776 J4.9089
G2 X19.7042 Y25.2036 I3.8762 J3.2858
G2 X19.3739 Y25.6987 I4.329 J3.2461
G2 X19.3414 Y25.7556 I0.6494 J0.408
G2 X19.2227 Y25.9843 I2.7114 J1.5532
G2 X19.0446 Y26.4336 I3.2958 J1.5665
G2 X18.9138 Y27.2669 I2.6481 J0.8426
G2 X18.9927 Y27.8936 I2.5004 J0.0036
G2 X19.3639 Y28.7609 I3.0717 J-0.8016
G2 X19.9386 Y29.5092 I3.9352 J-2.4276
G2 X20.4482 Y30.0012 I5.326 J-5.0066
G2 X20.7137 Y30.2251 I10.1169 J-11.7245
G2 X20.9845 Y30.4378 I7.1476 J-8.8238
G2 X21.1211 Y30.5401 I1.7836 J-2.2397
G1 X21.1897 Y30.5903
G2 X22.3213 Y31.3377 I10.1514 J-14.1389
G2 X23.4615 Y31.9864 I12.9436 J-21.426
G1 X23.6017 Y32.0611
G2 X24.1635 Y32.3519 I14.8097 J-27.9199
G1 X24.4418 Y32.4914
G1 X24.5804 Y32.5597
G2 X26.8167 Y33.5879 I22.0449 J-45.0049
G2 X28.9477 Y34.4746 I33.1205 J-76.5945
G1 X29.4507 Y34.6747
G2 X31.4399 Y35.4406 I50.4358 J-128.0207
G1 X31.9081 Y35.616
G1 X32.8315 Y35.9575
G1 X33.2795 Y36.1214
G1 X33.3899 Y36.1616
G2 X36.9154 Y37.4195 I127.4001 J-351.4815
G1 X40.0133 Y38.5031
G3 X40.1832 Y38.5624 I-1.4363 J4.3862
G3 X40.3518 Y38.6213 I-1.2521 J3.8556
G1 X41.6896 Y39.0895
G1 X42.9445 Y39.5313
G3 X43.0182 Y39.5573 I-0.3762 J1.1811
G3 X43.0915 Y39.5832 I-0.3712 J1.1659
G1 X44.2593 Y39.9986
G1 X45.3542 Y40.3928
G1 X46.3805 Y40.7676
G1 X46.8617 Y40.9454
G1 X47.3278 Y41.1192
G3 X47.5536 Y41.2039 I-5.4277 J14.8082
G3 X47.7758 Y41.2876 I-2.6593 J7.3917
G3 X49.5213 Y41.9607 I-65.3559 J172.1001
G1 X49.9033 Y42.1121
G1 X50.6423 Y42.4101
G3 X53.3916 Y43.5964 I-24.9452 J61.594
G3 X54.418 Y44.0834 I-17.112 J37.3935
G1 X54.5302 Y44.1386
G1 X54.6405 Y44.1933
G3 X56.3501 Y45.1088 I-13.7565 J27.7423
G3 X56.9812 Y45.4903 I-8.6313 J14.9888
G3 X58.0499 Y46.2268 I-7.7353 J12.3692
G3 X58.8029 Y46.8638 I-5.4812 J7.2425
G1 X58.8703 Y46.9288
G3 X59.3566 Y47.4665 I-3.9628 J4.0735
G3 X59.6646 Y47.9196 I-2.6977 J2.1648
G3 X59.8441 Y48.291 I-2.2172 J1.3006
G3 X59.9884 Y48.8926 I-2.0465 J0.809
G3 X59.9386 Y49.5092 I-1.8368 J0.1619
G3 X59.8181 Y49.858 I-2.185 J-0.5594
G3 X59.4468 Y50.4747 I-2.7529 J-1.2374
G3 X58.9828 Y50.9968 I-3.9231 J-3.0195
G3 X58.4733 Y51.4518 I-5.3857 J-5.5183
G3 X57.9402 Y51.8581 I-6.5386 J-8.0266
G3 X56.8343 Y52.5735 I-9.3076 J-13.1741
G3 X56.2815 Y52.8901 I-13.0774 J-22.1971
G3 X55.7294 Y53.1872 I-16.9476 J-30.826
G3 X53.505 Y54.2546 I-18.493 J-35.6888
G1 X52.9755 Y54.4868
G1 X52.9101 Y54.5151
G3 X51.8628 Y54.9557 I-40.2477 J-94.2034
G1 X51.6081 Y55.0599
G1 X51.3549 Y55.1623
G1 X50.8517 Y55.3632
G1 X50.355 Y55.5581
G1 X50.2938 Y55.5819
G1 X49.8047 Y55.7704
G1 X49.3223 Y55.9538
G3 X45.5007 Y57.3382 I-63.7152 J-169.9064
G3 X42.1334 Y58.4979 I-105.9351 J-302.135
G1 X41.9486 Y58.5607
G1 X39.0149 Y59.5541
G1 X38.372 Y59.772
G2 X38.294 Y59.7984 I0.5471 J1.7406
G1 X37.0531 Y60.2207
G1 X36.4711 Y60.4199
G1 X35.3439 Y60.8084
G1 X34.2873 Y61.1769
G1 X33.297 Y61.5271
G2 X29.5994 Y62.8977 I45.2138 J127.6481
G2 X26.8435 Y64.0266 I26.2761 J68.0765
G2 X25.8157 Y64.4868 I16.367 J37.9319
G1 X25.3678 Y64.6966
G2 X23.7123 Y65.5399 I13.4789 J28.5082
G2 X23.1011 Y65.8885 I11.9899 J21.736
G1 X22.8364 Y66.0482
G2 X21.8708 Y66.6931 I7.4654 J12.2211
G2 X21.1863 Y67.244 I5.7467 J7.8423
G2 X20.7145 Y67.711 I4.4132 J4.9295
G2 X20.4012 Y68.1014 I3.2968 J2.967
G2 X20.0479 Y68.7653 I2.2178 J1.6062
G2 X19.9386 Y69.5092 I1.723 J0.6331
G2 X20.0036 Y69.8812 I1.707 J-0.1066
G2 X20.1328 Y70.2236 I2.2405 J-0.6497
G2 X20.5152 Y70.8275 I2.9205 J-1.4264
G2 X20.9848 Y71.3386 I3.9151 J-3.1259
G1 X21.109 Y71.4545
G1 X21.1404 Y71.4828
G2 X21.6611 Y71.9124 I5.6088 J-6.2683
G1 X21.7272 Y71.9624
G1 X21.8603 Y72.0607
G2 X22.9621 Y72.7819 I8.4974 J-11.7805
G2 X24.0744 Y73.402 I11.5099 J-19.3385
G1 X24.3482 Y73.5436
G2 X26.5623 Y74.5833 I18.0923 J-35.6508
G1 X26.8253 Y74.6974
G1 X27.3488 Y74.9198
G2 X28.385 Y75.3448 I20.8403 J-49.3412
G1 X28.8891 Y75.5452
G2 X32.8938 Y77.0344 I45.6561 J-116.6425
G2 X34.6602 Y77.6526 I51.9383 J-145.5687
G1 X35.0752 Y77.7957
G1 X35.4839 Y77.9359
G1 X35.6852 Y78.0047
G1 X37.2843 Y78.5473
G1 X40.2882 Y79.5549
G3 X45.5487 Y81.3382 I-162.8171 J488.9521
G1 X45.7958 Y81.4241
G1 X46.7682 Y81.7653
G1 X47.224 Y81.9272
G1 X47.6653 Y82.0852
G1 X48.5195 Y82.3953
G3 X48.5696 Y82.4137 I-0.1758 J0.557
G3 X51.7425 Y83.6326 I-34.5362 J94.6396
G3 X54.1015 Y84.645 I-22.3497 J55.3337
G3 X54.9791 Y85.0592 I-15.166 J33.2649
G3 X55.3611 Y85.2484 I-6.3874 J13.378
G3 X56.0711 Y85.6178 I-12.995 J25.8447
G1 X56.3794 Y85.7868
G3 X57.5105 Y86.468 I-8.8416 J15.9595
G3 X58.323 Y87.0489 I-6.8949 J10.5025
G3 X58.8941 Y87.5423 I-4.3815 J5.6482
G3 X59.284 Y87.9572 I-3.3242 J3.5157
G1 X59.3519 Y88.0403
G3 X59.5848 Y88.3682 I-2.573 J2.0744
G3 X59.845 Y88.9129 I-2.106 J1.3405
G3 X59.9386 Y89.5092 I-1.7067 J0.5734
G3 X59.7676 Y90.2468 I-1.9217 J-0.0569
G3 X59.3961 Y90.8595 I-2.7977 J-1.2775
G3 X59.173 Y91.1262 I-4.0598 J-3.168
G3 X58.6822 Y91.6068 I-4.8542 J-4.4666
G3 X58.1592 Y92.0304 I-6.5781 J-7.5874
G3 X57.6193 Y92.412 I-6.8954 J-9.181
G1 X57.3471 Y92.5895
G3 X57.0735 Y92.7599 I-4.9414 J-7.6291
G3 X57.0051 Y92.8014 I-0.7309 J-1.1278
G1 X56.7306 Y92.9639
G1 X56.4558 Y93.1209
G3 X55.9044 Y93.4209 I-9.1459 J-16.15
G1 X55.8702 Y93.439
G1 X55.5963 Y93.5812
G3 X55.3231 Y93.7196 I-5.454 J-10.4303
G3 X53.1176 Y94.7387 I-18.7213 J-37.6171
G1 X53.0522 Y94.7669
G1 X52.529 Y94.9888
G3 X51.4934 Y95.4126 I-29.9978 J-71.8229
G1 X50.9895 Y95.6125
G1 X50.4923 Y95.8062
G3 X50.3698 Y95.8535 I-0.8636 J-2.0573
G3 X49.3911 Y96.2245 I-30.2704 J-78.3679
G1 X49.2723 Y96.2688
G1 X48.3244 Y96.6178
G3 X46.4806 Y97.2763 I-57.5075 J-158.1054
G1 X46.0472 Y97.428
G1 X45.9404 Y97.4652
G3 X42.5315 Y98.629 I-124.0681 J-357.8388
G3 X39.538 Y99.6305 I-546.156 J-1627.4733
G1 X38.226 Y100.0691
G1 X36.9955 Y100.4824
G1 X36.4185 Y100.6773
G1 X35.3009 Y101.0575
G1 X34.2533 Y101.418
G1 X33.2717 Y101.7607
G1 X32.8115 Y101.9231
G2 X31.0322 Y102.5655 I45.6163 J129.1343
G1 X30.2545 Y102.8549
G2 X27.3567 Y103.9994 I31.1782 J83.1796
G1 X26.8149 Y104.229
G1 X26.3084 Y104.4497
G2 X26.0713 Y104.5551 I10.4561 J23.826
G2 X25.8421 Y104.6585 I2.971 J6.8914
G2 X24.0871 Y105.5095 I15.0992 J33.3735
G1 X24.0054 Y105.5523
G2 X22.7413 Y106.268 I10.3619 J19.7774
G2 X21.8273 Y106.8776 I7.3909 J12.0718
G2 X21.4969 Y107.1293 I8.8372 J11.9389
G1 X21.3556 Y107.2443
G1 X21.2901 Y107.2994
G2 X20.8059 Y107.7524 I3.8648 J4.6163
G2 X20.4792 Y108.1305 I3.417 J3.2828
G2 X20.2663 Y108.4404 I2.6688 J2.0605
G2 X20.0285 Y108.9521 I2.0156 J1.2479
G2 X19.9386 Y109.5092 I1.6697 J0.5553
G2 X20.1014 Y110.2503 I1.8659 J-0.0215
G2 X20.4697 Y110.8656 I2.6943 J-1.1949
G1 X20.5232 Y110.9342
G1 X20.6341 Y111.0675
G1 X20.7493 Y111.1958
G2 X20.8082 Y111.2581 I1.6117 J-1.4654
G2 X21.0523 Y111.4973 I3.5491 J-3.3761
G2 X21.5688 Y111.9345 I6.1415 J-6.7327
G1 X21.6017 Y111.96
G2 X22.696 Y112.71 I7.8285 J-10.2482
G2 X23.8084 Y113.3479 I11.72 J-19.1507
G2 X26.0404 Y114.4339 I16.3437 J-30.7528
G1 X26.5726 Y114.6686
G1 X26.8355 Y114.782
G1 X27.3588 Y115.0032
G2 X28.3944 Y115.4257 I20.8383 J-49.5996
G1 X28.8983 Y115.625
G2 X32.9003 Y117.1059 I46.106 J-118.4516
G2 X34.6653 Y117.7207 I61.9208 J-174.9196
G2 X37.9868 Y118.845 I138.7439 J-404.3954
G1 X39.4442 Y119.3316
G1 X42.1791 Y120.2446
G1 X42.4787 Y120.3451
G1 X43.6578 Y120.7427
G3 X43.727 Y120.7661 I-0.3231 J1.0674
G1 X44.2777 Y120.9532
G1 X44.8111 Y121.1355
G1 X45.3278 Y121.3131
G1 X45.5781 Y121.3996
G1 X45.8245 Y121.485
G1 X46.7937 Y121.8241
G1 X47.2479 Y121.9849
G3 X49.0043 Y122.6213 I-39.3965 J111.4828
G3 X50.5375 Y123.2006 I-31.5279 J85.753
G1 X51.2072 Y123.4627
G1 X51.8338 Y123.7139
G1 X52.1272 Y123.8338
G1 X52.6944 Y124.0701
G1 X53.2249 Y124.297
G1 X53.4731 Y124.4054
G3 X55.3753 Y125.2966 I-17.2356 J39.2649
G1 X55.4639 Y125.3414
G3 X56.8375 Y126.0896 I-11.442 J22.6393
G3 X57.8342 Y126.7267 I-8.0588 J13.7064
G3 X58.5453 Y127.2689 I-5.4691 J7.9098
G3 X59.0408 Y127.7274 I-4.4133 J5.2666
G3 X59.3759 Y128.1102 I-3.5375 J3.4352
G3 X59.5949 Y128.4241 I-2.5265 J1.9962
G3 X59.8416 Y128.9429 I-2.1739 J1.3517
G3 X59.9386 Y129.5092 I-1.7232 J0.5865
G3 X59.7838 Y130.253 I-1.8969 J-0.0068
G3 X59.6219 Y130.574 I-2.1401 J-0.8778
G3 X59.2033 Y131.142 I-3.3123 J-2.0031
G3 X58.7174 Y131.6284 I-4.1595 J-3.6686
G3 X57.6503 Y132.4497 I-6.6034 J-7.4759
G3 X57.104 Y132.8022 I-10.6868 J-15.9647
G3 X55.9948 Y133.4383 I-10.7717 J-17.4972
G3 X55.7214 Y133.5832 I-4.1456 J-7.4966
G1 X55.4485 Y133.7239
G1 X55.3126 Y133.7927
G3 X54.2197 Y134.3199 I-15.3235 J-30.3707
G3 X52.065 Y135.2592 I-24.4793 J-53.2141
G1 X51.5549 Y135.4676
G3 X49.5336 Y136.256 I-40.2744 J-100.2691
G1 X49.4145 Y136.3009
G1 X49.2959 Y136.3454
G1 X48.3494 Y136.6964
G1 X47.4298 Y137.03
G1 X46.5368 Y137.3481
G3 X45.6701 Y137.6524 I-25.3031 J-70.6817
G1 X45.565 Y137.6891
G1 X44.7271 Y137.9793
G3 X44.3209 Y138.119 I-26.1174 J-75.3028
G1 X42.7194 Y138.6644
G1 X41.2155 Y139.1712
G1 X38.392 Y140.118
G2 X35.9192 Y140.9534 I273.4835 J813.6157
G1 X34.8368 Y141.3241
G1 X33.8224 Y141.6757
G2 X30.0327 Y143.0464 I52.0678 J149.8795
G1 X29.3228 Y143.3176
G2 X27.996 Y143.8422 I32.3957 J83.8735
G2 X25.6947 Y144.8285 I22.3041 J55.2215
G2 X25.2656 Y145.0273 I7.1653 J16.0321
G2 X23.6784 Y145.8241 I13.2411 J28.3533
G1 X23.3842 Y145.9858
G2 X22.8387 Y146.3017 I7.7533 J14.0181
G2 X21.9108 Y146.9048 I7.4112 J12.4169
G2 X21.2495 Y147.4164 I5.8105 J8.194
G2 X20.7889 Y147.8474 I3.7835 J4.5059
G2 X20.4768 Y148.206 I3.1926 J3.0933
G2 X20.1044 Y148.8149 I2.2776 J1.8114
G2 X19.9386 Y149.5092 I1.6965 J0.7721
G2 X20.0855 Y150.2578 I1.7937 J0.0368
G2 X20.2485 Y150.5787 I2.3767 J-1.0058
G2 X20.6727 Y151.1426 I3.1433 J-1.9227
G2 X21.1649 Y151.6225 I3.9927 J-3.6032
G1 X21.1968 Y151.6501
G2 X21.724 Y152.0682 I5.7917 J-6.7621
G1 X21.7908 Y152.1169
G1 X21.9251 Y152.2125
G2 X23.0347 Y152.9141 I8.6846 J-12.5075
G2 X24.152 Y153.5175 I12.5041 J-21.8173
G2 X25.2584 Y154.0533 I14.9904 J-29.5421
G1 X25.529 Y154.1775
G2 X25.6636 Y154.2384 I1.3245 J-2.7478
G2 X26.7424 Y154.7087 I20.8633 J-46.386
G1 X27.2685 Y154.9281
G2 X29.3567 Y155.7515 I33.8523 J-82.7989
G1 X29.8493 Y155.9369
G1 X29.91 Y155.9595
G1 X30.3949 Y156.1391
G2 X32.3113 Y156.828 I42.9368 J-116.4407
G1 X33.213 Y157.1429
G1 X33.6505 Y157.294
G1 X34.5127 Y157.5891
G2 X37.8616 Y158.7122 I141.6686 J-416.8723
G1 X38.0453 Y158.7732
G1 X40.9608 Y159.7397
G1 X41.5995 Y159.9523
G3 X41.6769 Y159.9781 I-0.5371 J1.7401
G1 X42.9094 Y160.3907
G3 X47.5192 Y161.9875 I-73.4744 J219.5634
G1 X47.9515 Y162.144
G3 X49.6222 Y162.7654 I-33.5474 J92.7609
G3 X51.0789 Y163.3339 I-31.3744 J82.536
G3 X51.1188 Y163.3499 I-0.1408 J0.4086
G3 X53.6338 Y164.4201 I-21.9875 J55.1637
G3 X54.5681 Y164.8585 I-15.5073 J34.2677
G3 X56.1752 Y165.6945 I-12.9841 J26.9216
G3 X57.3443 Y166.4053 I-9.032 J16.1708
G3 X57.7695 Y166.6985 I-6.1693 J9.405
G3 X58.4827 Y167.2571 I-6.0451 J8.4532
G3 X58.9789 Y167.7261 I-4.8479 J5.6254
G3 X59.3156 Y168.1143 I-3.5841 J3.4487
G3 X59.7249 Y168.7681 I-2.737 J2.1684
G3 X59.9386 Y169.5092 I-2.0595 J0.9952
G3 X59.8685 Y170.2927 I-2.0763 J0.2091
G3 X59.576 Y170.9745 I-2.8217 J-0.8069
G3 X59.1653 Y171.5621 I-3.8874 J-2.2798
G3 X58.6925 Y172.078 I-4.7843 J-3.9098
G3 X58.1857 Y172.5402 I-6.6314 J-6.7617
G3 X57.1142 Y173.3561 I-9.0547 J-10.7796
G3 X57.0472 Y173.4023 I-0.5647 J-0.7474
G3 X55.9531 Y174.1031 I-12.5635 J-18.4094
G3 X54.8622 Y174.7286 I-14.7979 J-24.5449
G3 X53.7854 Y175.2975 I-22.616 J-41.5077
G1 X53.5223 Y175.4307
G1 X53.2605 Y175.5614
G1 X52.7389 Y175.8166
G1 X52.223 Y176.0628
G1 X51.7132 Y176.3007
G1 X51.2095 Y176.5311
G1 X50.7121 Y176.7545
G3 X50.5895 Y176.809 I-0.9843 J-2.0495
G3 X48.6253 Y177.6554 I-39.9142 J-89.9205
G1 X48.394 Y177.7522
G1 X47.4744 Y178.1325
G1 X46.5811 Y178.4953
G3 X44.8447 Y179.1858 I-93.9123 J-233.6128
G3 X44.4368 Y179.3458 I-14.7292 J-36.9654
G1 X44.2358 Y179.4243
G1 X43.4379 Y179.7345
G1 X43.051 Y179.8842
G1 X41.5262 Y180.4699
G1 X41.1683 Y180.6067
G1 X38.3487 Y181.6808
G1 X37.1137 Y182.1522
G1 X36.5346 Y182.3741
G1 X35.413 Y182.8062
G1 X34.8873 Y183.0101
G1 X33.8694 Y183.408
G1 X33.6308 Y183.502
G1 X32.6924 Y183.8745
G1 X31.8137 Y184.2285
G2 X30.1704 Y184.9073 I43.5515 J107.7646
G1 X29.8114 Y185.0591
G1 X29.1171 Y185.357
G1 X28.4676 Y185.6416
G1 X27.8603 Y185.9134
G1 X27.5761 Y186.0428
G2 X25.3953 Y187.0948 I21.7963 J47.9716
G2 X25.1923 Y187.1994 I5.4664 J10.8536
G2 X24.996 Y187.3019 I3.0883 J6.1497
G2 X24.8064 Y187.4024 I2.3805 J4.7232
G2 X24.0774 Y187.8028 I16.94 J31.7102
G2 X22.8289 Y188.5579 I11.595 J20.5794
G1 X22.5994 Y188.7098
G2 X21.763 Y189.316 I7.4517 J11.1626
G2 X21.1704 Y189.8208 I5.2797 J6.7971
G1 X21.0641 Y189.9218
G2 X20.6858 Y190.3208 I4.8687 J4.9954
G1 X20.6522 Y190.3601
G1 X20.6201 Y190.3986
G2 X20.1847 Y191.0399 I2.8459 J2.4
G1 X20.1625 Y191.0832
G2 X19.9386 Y191.775 I1.9593 J1.0162
G2 X19.9952 Y192.5384 I1.8157 J0.2491
G2 X20.2929 Y193.188 I2.4111 J-0.7117
G2 X20.4912 Y193.4695 I2.5587 J-1.5922
G2 X20.9471 Y193.9723 I4.0463 J-3.2108
G2 X21.4466 Y194.4094 I4.4736 J-4.608
G2 X21.7045 Y194.6082 I5.5323 J-6.9147
G1 X21.8348 Y194.7033
G2 X22.915 Y195.3989 I7.7935 J-10.9158
G2 X24.0063 Y195.992 I10.2496 J-17.5607
G1 X24.2749 Y196.1267
G2 X24.8121 Y196.3856 I11.2937 J-22.7424
G2 X25.8822 Y196.8677 I15.3052 J-32.5431
G2 X27.9883 Y197.7234 I21.238 J-49.2561
G1 X28.2372 Y197.8184
G2 X28.732 Y198.0042 I9.527 J-24.6189
G2 X28.9761 Y198.0944 I3.0344 J-7.8315
G2 X29.9472 Y198.4453 I19.9891 J-53.808
G1 X30.4189 Y198.6115
G1 X30.5352 Y198.652
G1 X30.9986 Y198.8123
G1 X31.9129 Y199.1226
G1 X32.8007 Y199.4171
G1 X32.9084 Y199.4525
G1 X33.767 Y199.7314
G1 X34.6 Y199.9979
G1 X35.4079 Y200.2531
G1 X36.1914 Y200.498
G1 X37.7112 Y200.9672
G1 X39.1377 Y201.4029
G2 X40.476 Y201.8095 I65.37 J-212.7758
G1 X42.9857 Y202.5722
G1 X44.0835 Y202.9084
G1 X45.1122 Y203.2261
G3 X48.9593 Y204.4542 I-62.8719 J203.5946
G1 X49.3191 Y204.5737
G1 X50.0153 Y204.8081
G3 X50.3413 Y204.9194 I-8.0469 J24.1017
G3 X52.8543 Y205.8193 I-27.4532 J80.6228
G3 X54.7189 Y206.5545 I-18.5112 J49.6791
G1 X54.8057 Y206.5907
G1 X54.8911 Y206.6265
G3 X56.2251 Y207.2155 I-14.0041 J33.5241
G3 X57.2083 Y207.6964 I-13.8909 J29.6464
G3 X57.2995 Y207.7436 I-0.9315 J1.909
G1 X57.6507 Y207.9307
G3 X58.2558 Y208.2757 I-6.7084 J12.4699
G3 X58.4788 Y208.4117 I-3.2188 J5.5297
G3 X58.8627 Y208.66 I-8.3042 J13.2615
G3 X59.4186 Y209.0618 I-4.9184 J7.3886
G3 X59.6842 Y209.2789 I-3.6492 J4.7357
G1 X59.749 Y209.3352
G1 X59.8447 Y209.4212
G1 X59.9386 Y209.5092
G1 X60.0254 Y209.5943
G3 X60.6254 Y210.343 I-2.9009 J2.9394
G3 X60.959 Y211.1487 I-2.2593 J1.4075
G3 X60.9939 Y211.9447 I-2.202 J0.4953
G3 X60.7914 Y212.6637 I-2.6515 J-0.3587
G3 X60.4448 Y213.2918 I-3.6369 J-1.5975
G3 X60.0175 Y213.8434 I-4.4517 J-3.0074
G3 X59.7864 Y214.0947 I-3.8749 J-3.3312
G3 X59.2983 Y214.5622 I-6.2063 J-5.9907
G3 X58.7897 Y214.9885 I-7.8825 J-8.8883
G3 X57.7334 Y215.7532 I-9.941 J-12.6204
G1 X57.6019 Y215.8402
G1 X57.3382 Y216.0106
G3 X57.2064 Y216.0937 I-1.8238 J-2.7444
G3 X56.6765 Y216.4163 I-9.0846 J-14.3241
G1 X56.413 Y216.5705
G1 X56.2817 Y216.646
G1 X56.0192 Y216.7943
G3 X53.894 Y217.8947 I-19.6715 J-35.39
G3 X51.857 Y218.8315 I-28.8481 J-60.0427
G1 X51.6162 Y218.9367
G1 X51.377 Y219.0402
G1 X50.9013 Y219.2432
G3 X50.6667 Y219.342 I-3.8241 J-8.75
G1 X50.2004 Y219.5361
G1 X49.7403 Y219.7246
G1 X49.6836 Y219.7476
G1 X49.627 Y219.7706
G1 X49.514 Y219.8163
G3 X48.6118 Y220.1757 I-23.7498 J-58.3066
G3 X46.8554 Y220.8504 I-37.2938 J-94.4558
G1 X46.0289 Y221.1581
G1 X45.6279 Y221.3053
G1 X45.2328 Y221.4492
G1 X44.4539 Y221.7296
G1 X44.0761 Y221.8641
G1 X43.3316 Y222.1265
G1 X42.9706 Y222.2525
G1 X42.2592 Y222.4986
G1 X41.5692 Y222.7347
G1 X41.2347 Y222.8484
G1 X40.5757 Y223.0706
G1 X39.2973 Y223.4962
G1 X38.0971 Y223.8899
G3 X33.5839 Y225.3281 I-136.2933 J-419.877
G1 X32.736 Y225.5924
G1 X31.9406 Y225.8388
G1 X30.4485 Y226.298
G1 X30.2852 Y226.348
G1 X28.999 Y226.7404
G1 X28.4361 Y226.9115
G1 X26.3243 Y227.5496
G1 X25.5321 Y227.7879
G1 X22.7583 Y228.6185
G1 X22.4115 Y228.722
G1 X21.1976 Y229.0843
G1 X20.5906 Y229.2653
G1 X19.9836 Y229.4462
M30
