( Made using CamBam - http://www.cambam.info )
( Sauce Line 11/3/2018 3:29:01 PM )
( T0 : 0.0 )
M203 X1000
M203 Y1000
M203 Z300
G0 F4000
G0 X30.0 Y105.0
G0 F1000
G1 X38.9289 Z15
G0 X49 Y99.07 Z34.6
G0 X65 Y110.93 Z68.09
G0 X81 Y99.07 Z101.55
G0 X97 Y110.93 Z135
G0 X113 Y99.07 Z168.46
G0 X129 Y110.93 Z201.92
G0 X145 Y99.07 Z235.38
G0 X161 Y110.93 Z268.84
G0 X171.07 Y105.93 Z287.72
G1 X180.0 Z302.73
G28 Z 
( M30 )
